src/assets/icons/weeks,fancy,28.svg

<svg width="48" height="48" viewBox="0 0 48 48" fill="none" xmlns="http://www.w3.org/2000/svg">
<rect opacity="0.2" x="4" y="6" width="40" height="40" rx="4" fill="black"/>
<path d="M7.57635 41H22.0934V37.4801H13.5423V37.3409L16.5153 34.4276C20.7013 30.6094 21.8249 28.7003 21.8249 26.3835C21.8249 22.8537 18.9414 20.358 14.5763 20.358C10.3008 20.358 7.36754 22.9134 7.37749 26.9105H11.4641C11.4542 24.9616 12.6871 23.7685 14.5465 23.7685C16.3363 23.7685 17.6687 24.8821 17.6687 26.6719C17.6687 28.2926 16.6744 29.4062 14.8249 31.1861L7.57635 37.8977V41ZM32.8097 41.2784C37.4034 41.2784 40.7045 38.8224 40.7145 35.5213C40.7045 32.9759 38.7457 30.8977 36.2997 30.4901V30.3509C38.4276 29.9134 39.9489 28.0739 39.9588 25.8366C39.9489 22.6847 36.9261 20.358 32.8097 20.358C28.6832 20.358 25.6605 22.6847 25.6705 25.8366C25.6605 28.0639 27.1619 29.9134 29.3295 30.3509V30.4901C26.8438 30.8977 24.9048 32.9759 24.9148 35.5213C24.9048 38.8224 28.2159 41.2784 32.8097 41.2784ZM32.8097 38.1165C30.7614 38.1165 29.3892 36.9034 29.3892 35.1832C29.3892 33.4233 30.831 32.1506 32.8097 32.1506C34.7784 32.1506 36.2301 33.4233 36.2301 35.1832C36.2301 36.9134 34.848 38.1165 32.8097 38.1165ZM32.8097 29.0185C31.0895 29.0185 29.8665 27.8949 29.8665 26.2841C29.8665 24.6932 31.0696 23.5994 32.8097 23.5994C34.5398 23.5994 35.7528 24.7031 35.7528 26.2841C35.7528 27.8949 34.5199 29.0185 32.8097 29.0185Z" fill="black"/>
<g opacity="0.4">
<path d="M10 4C10 2.89543 10.8954 2 12 2C13.1046 2 14 2.89543 14 4V8C14 9.10457 13.1046 10 12 10C10.8954 10 10 9.10457 10 8V4Z" fill="black"/>
<path d="M34 4C34 2.89543 34.8954 2 36 2C37.1046 2 38 2.89543 38 4V8C38 9.10457 37.1046 10 36 10C34.8954 10 34 9.10457 34 8V4Z" fill="black"/>
</g>
<path fill-rule="evenodd" clip-rule="evenodd" d="M10 6.00869C7.52043 6.04456 6.11466 6.22849 5.17157 7.17157C4 8.34315 4 10.2288 4 14V16H44V14C44 10.2288 44 8.34315 42.8284 7.17157C41.8853 6.22849 40.4796 6.04456 38 6.00869V8C38 9.10457 37.1046 10 36 10C34.8954 10 34 9.10457 34 8V6H14V8C14 9.10457 13.1046 10 12 10C10.8954 10 10 9.10457 10 8V6.00869Z" fill="black"/>
</svg>

<svg xmlns="http://www.w3.org/2000/svg" width="48" height="48" fill="none" viewBox="0 0 48 48">
  <rect width="40" height="40" x="4" y="6" fill="#000" opacity=".2" rx="4"/>
  <path fill="#000" d="M7.576 41h14.517v-3.52h-8.55v-.14l2.972-2.912c4.186-3.819 5.31-5.728 5.31-8.044 0-3.53-2.884-6.026-7.249-6.026-4.275 0-7.208 2.555-7.199 6.552h4.087c-.01-1.948 1.223-3.142 3.082-3.142 1.79 0 3.123 1.114 3.123 2.904 0 1.62-.995 2.734-2.844 4.514l-7.249 6.712V41zm25.234.278c4.593 0 7.895-2.456 7.904-5.757-.01-2.545-1.968-4.623-4.414-5.03v-.14c2.128-.438 3.649-2.277 3.659-4.514-.01-3.152-3.033-5.479-7.15-5.479-4.126 0-7.148 2.327-7.138 5.479-.01 2.227 1.49 4.076 3.659 4.514v.14c-2.486.407-4.425 2.485-4.415 5.03-.01 3.301 3.3 5.757 7.895 5.757zm0-3.161c-2.049 0-3.42-1.214-3.42-2.934 0-1.76 1.441-3.032 3.42-3.032 1.968 0 3.42 1.272 3.42 3.032 0 1.73-1.382 2.934-3.42 2.934zm0-9.098c-1.72 0-2.944-1.124-2.944-2.735 0-1.59 1.204-2.685 2.944-2.685 1.73 0 2.943 1.104 2.943 2.685 0 1.61-1.233 2.735-2.943 2.735z"/>
  <g opacity=".4">
    <path fill="#000" d="M10 4a2 2 0 114 0v4a2 2 0 11-4 0V4zM34 4a2 2 0 114 0v4a2 2 0 11-4 0V4z"/>
  </g>
  <path fill="#000" fill-rule="evenodd" d="M10 6.009c-2.48.036-3.885.22-4.828 1.163C4 8.343 4 10.229 4 14v2h40v-2c0-3.771 0-5.657-1.172-6.828-.943-.944-2.348-1.127-4.828-1.163V8a2 2 0 11-4 0V6H14v2a2 2 0 11-4 0V6.009z" clip-rule="evenodd"/>
</svg>
